X: 7210
T: Cití Na gCumann
R: waltz
M: 3/4
K: Dmajor
cd|e3dc2|d2c2B2|A4GA/G/|E4F2|G3FG2|A3GF2|E4cd|
e3dc2|d2c2B2|A4GA/G/|E4F2|G3FE2|D4D2|D4EF||
G3FG2|A3Bc2|d3cd2|e3fed|c3BA2|G4FG/F/|
E4cd|e3dc2|d3cB2|A4GA/G/|E4F2|G3FE2|D4D2|D6||

